fs/server_play_20_filled.svg

<svg viewBox="0 0 20 20" fill="none" xmlns="http://www.w3.org/2000/svg" height="1em" width="1em">
  <path d="M7.5 2C6.11929 2 5 3.11929 5 4.5V15.5C5 16.8807 6.11929 18 7.5 18H10.2572C9.57137 17.1696 9.12465 16.1345 9.02242 15H7.5C7.22386 15 7 14.7761 7 14.5C7 14.2239 7.22386 14 7.5 14H9.02242C9.05337 13.6566 9.11588 13.3223 9.20703 13H7.5C7.22386 13 7 12.7761 7 12.5C7 12.2239 7.22386 12 7.5 12H9.59971C10.5101 10.2192 12.3627 9 14.5 9C14.6685 9 14.8353 9.00758 15 9.02242V4.5C15 3.11929 13.8807 2 12.5 2H7.5ZM7 5.5C7 5.22386 7.22386 5 7.5 5H12.5C12.7761 5 13 5.22386 13 5.5C13 5.77614 12.7761 6 12.5 6H7.5C7.22386 6 7 5.77614 7 5.5ZM19 14.5C19 16.9853 16.9853 19 14.5 19C12.0147 19 10 16.9853 10 14.5C10 12.0147 12.0147 10 14.5 10C16.9853 10 19 12.0147 19 14.5ZM16.7133 14.0629L13.7428 12.4127C13.4096 12.2275 13 12.4685 13 12.8498L13 16.1502C13 16.5315 13.4096 16.7725 13.7428 16.5873L16.7133 14.9371C17.0562 14.7466 17.0562 14.2534 16.7133 14.0629Z" fill="#212121"/>
</svg>

<svg viewBox="0 0 20 20" fill="none" xmlns="http://www.w3.org/2000/svg" height="1em" width="1em">
  <path d="M7.5 2A2.5 2.5 0 0 0 5 4.5v11A2.5 2.5 0 0 0 7.5 18h2.757a5.475 5.475 0 0 1-1.235-3H7.5a.5.5 0 0 1 0-1h1.522a5.48 5.48 0 0 1 .185-1H7.5a.5.5 0 0 1 0-1h2.1A5.5 5.5 0 0 1 15 9.022V4.5A2.5 2.5 0 0 0 12.5 2h-5ZM7 5.5a.5.5 0 0 1 .5-.5h5a.5.5 0 0 1 0 1h-5a.5.5 0 0 1-.5-.5Zm12 9a4.5 4.5 0 1 1-9 0 4.5 4.5 0 0 1 9 0Zm-2.287-.437-2.97-1.65a.5.5 0 0 0-.743.437v3.3a.5.5 0 0 0 .743.437l2.97-1.65a.5.5 0 0 0 0-.874Z" fill="#212121"/>
</svg>
